src/img/icons/ico_41.svg

<svg width="60" height="60" viewBox="0 0 60 60" fill="none" xmlns="http://www.w3.org/2000/svg">
<g clip-path="url(#clip0_2109_4124)">
<path d="M13.125 50.625H11.25C10.7527 50.625 10.2758 50.4275 9.92418 50.0758C9.57254 49.7242 9.375 49.2473 9.375 48.75V46.875" stroke="#ED6E77" stroke-width="2" stroke-linecap="round" stroke-linejoin="round"/>
<path d="M26.25 20.625H20.625" stroke="#ED6E77" stroke-width="2" stroke-linecap="round" stroke-linejoin="round"/>
<path d="M26.25 50.625H22.5" stroke="#ED6E77" stroke-width="2" stroke-linecap="round" stroke-linejoin="round"/>
<path d="M39.375 39.375V33.75" stroke="#ED6E77" stroke-width="2" stroke-linecap="round" stroke-linejoin="round"/>
<path d="M9.375 37.5V33.75" stroke="#ED6E77" stroke-width="2" stroke-linecap="round" stroke-linejoin="round"/>
<path d="M35.625 50.625H37.5C37.9973 50.625 38.4742 50.4275 38.8258 50.0758C39.1775 49.7242 39.375 49.2473 39.375 48.75V46.875" stroke="#ED6E77" stroke-width="2" stroke-linecap="round" stroke-linejoin="round"/>
<path d="M35.625 20.625H37.5C37.9973 20.625 38.4742 20.8225 38.8258 21.1742C39.1775 21.5258 39.375 22.0027 39.375 22.5V24.375" stroke="#ED6E77" stroke-width="2" stroke-linecap="round" stroke-linejoin="round"/>
<path d="M13.125 20.625H11.25C10.7527 20.625 10.2758 20.8225 9.92418 21.1742C9.57254 21.5258 9.375 22.0027 9.375 22.5V24.375" stroke="#ED6E77" stroke-width="2" stroke-linecap="round" stroke-linejoin="round"/>
<path d="M39.375 39.375H48.75C49.2473 39.375 49.7242 39.1775 50.0758 38.8258C50.4275 38.4742 50.625 37.9973 50.625 37.5V11.25C50.625 10.7527 50.4275 10.2758 50.0758 9.92418C49.7242 9.57254 49.2473 9.375 48.75 9.375H22.5C22.0027 9.375 21.5258 9.57254 21.1742 9.92418C20.8225 10.2758 20.625 10.7527 20.625 11.25V20.625" stroke="#ED6E77" stroke-width="2" stroke-linecap="round" stroke-linejoin="round"/>
</g>
<defs>
<clipPath id="clip0_2109_4124">
<rect width="60" height="60" fill="white"/>
</clipPath>
</defs>
</svg>

<svg xmlns="http://www.w3.org/2000/svg" width="60" height="60" fill="none">
  <g stroke="#ED6E77" stroke-linecap="round" stroke-linejoin="round" stroke-width="2" clip-path="url(#a)">
    <path d="M13.125 50.625H11.25a1.875 1.875 0 0 1-1.875-1.875v-1.875M26.25 20.625h-5.625M26.25 50.625H22.5M39.375 39.375V33.75M9.375 37.5v-3.75M35.625 50.625H37.5a1.875 1.875 0 0 0 1.875-1.875v-1.875M35.625 20.625H37.5a1.875 1.875 0 0 1 1.875 1.875v1.875M13.125 20.625H11.25A1.875 1.875 0 0 0 9.375 22.5v1.875"/>
    <path d="M39.375 39.375h9.375a1.875 1.875 0 0 0 1.875-1.875V11.25a1.875 1.875 0 0 0-1.875-1.875H22.5a1.875 1.875 0 0 0-1.875 1.875v9.375"/>
  </g>
  <defs>
    <clipPath id="a">
      <path fill="#fff" d="M0 0h60v60H0z"/>
    </clipPath>
  </defs>
</svg>
